icons/fastify.svg

<?xml version="1.0" encoding="UTF-8"?>
<svg width="512px" height="152px" viewBox="0 0 512 152" version="1.1" xmlns="http://www.w3.org/2000/svg" xmlns:xlink="http://www.w3.org/1999/xlink" preserveAspectRatio="xMidYMid">
    <g fill="#000000">
        <path d="M504.511068,21.4903139 L511.938489,2.25283076 L511.615558,1.06106022 L438.133293,20.4215648 C445.968223,9.08821144 443.277129,0 443.277129,0 C443.277129,0 419.810782,14.9855534 402.064935,14.5934224 C384.319087,14.2012915 378.598588,9.46496471 351.387776,18.1456675 C324.176964,26.8186815 316.488121,53.4451419 308.599369,59.1656405 C300.710617,64.8861391 275.960234,83.5162036 275.960234,83.5162036 L276.014056,83.8468238 L298.327076,76.7423337 C298.327076,76.7423337 292.206758,82.5089653 279.204926,100.031837 C279.204926,100.031837 278.981949,99.8242379 278.597507,99.4705511 L278.620574,99.5935726 C278.620574,99.5935726 289.06971,115.563298 299.326626,112.610782 C300.35693,112.310918 301.517946,111.818832 302.786605,111.172969 C306.915513,113.471933 312.305391,115.732452 318.256555,116.355249 C318.256555,116.355249 314.227602,111.672744 310.867578,106.344376 C311.774861,105.760024 312.705211,105.152605 313.650939,104.537498 L313.212675,104.845052 L321.708845,107.966722 L320.770806,99.9780147 C320.801562,99.962637 320.824628,99.9395705 320.855384,99.9241928 L329.205466,102.992041 L328.167473,95.726085 C329.228533,95.1724884 330.281904,94.6496471 331.335276,94.16525 L340.039045,61.2416279 L376.030515,36.6911548 L373.170266,43.8879111 C365.873555,61.8336687 352.172038,66.0702208 352.172038,66.0702208 L346.451539,68.2384742 C342.19961,73.266977 340.408109,74.5048806 338.947229,91.3818892 C342.376453,90.5207388 345.6519,90.3131401 348.619793,91.1127797 C363.997477,95.2570656 369.325845,113.787175 365.181559,118.915633 C364.143565,120.19967 361.675447,122.39099 358.561466,124.966752 L352.318126,124.966752 L352.233549,130.02601 C352.018261,130.195164 351.802973,130.35663 351.595375,130.525785 L345.244391,130.525785 L345.167503,135.462021 C344.606217,135.892596 344.044932,136.307794 343.506713,136.715303 C337.540171,136.838324 329.982039,131.632978 329.982039,131.632978 C329.982039,136.369305 333.926415,143.658327 333.926415,143.658327 C333.926415,143.658327 334.187836,143.535306 334.6261,143.320018 C334.241658,143.604505 334.02637,143.758282 334.02637,143.758282 C334.02637,143.758282 349.996096,154.407328 360.053101,150.462952 C368.995225,146.95684 392.146328,128.703529 412.129629,120.06127 L472.602373,104.129989 L480.575702,83.4700706 L434.488782,95.6107524 L434.488782,77.0575762 L488.564409,62.8101517 L496.537738,42.1502328 L434.50416,58.4967112 L434.50416,39.9358462 L504.511068,21.4903139 Z"></path>
        <path d="M210.928007,21.4749362 C214.718606,21.4749362 217.563478,22.066977 219.339601,22.6590179 L216.02571,34.0308154 C214.603274,33.5541072 213.303859,33.323442 211.404715,33.323442 C206.076348,33.323442 202.993122,38.8901637 202.047395,43.9801772 L201.570686,46.4636732 L212.483,46.4629362 L212.481153,46.4482955 L227.997237,46.4482955 L227.997237,46.4636732 L228.350924,74.3049707 C228.466256,79.7563598 228.589278,83.7853131 228.466256,88.0449317 L228.70461,88.0449317 C229.888692,83.3086049 231.072774,79.3949842 233.08725,73.2362217 L241.85253,46.4636732 L256.776573,46.4636732 L237.831266,92.0661961 C232.141523,105.337138 225.629073,116.470581 218.524583,122.98303 C215.087671,126.181589 211.066406,128.672774 208.575222,129.733834 L202.654813,117.646974 C205.261331,116.339871 207.983181,114.802102 210.351344,112.910647 C213.672924,110.181108 216.863793,106.867217 218.286229,103.668659 C218.524583,102.838264 218.755249,102.246223 218.639916,101.062141 L213.658,56.8889362 L199.794564,56.8897432 L190.675597,104.39141 L175.866887,104.39141 L184.985854,56.8897432 L187.008019,46.4636732 L187.477039,44.0955098 C188.784142,37.2293738 191.390659,31.3012765 196.242319,26.8033038 C199.794564,23.4894128 205.007599,21.4749362 210.928007,21.4749362 Z M65.9779546,45.5256345 C71.7830305,45.5256345 77.5881063,46.4713621 81.1403514,47.8937979 L74.7509236,80.1023577 C73.3284878,86.8531611 72.2597387,98.1096261 72.3827602,104.383721 L59.588,104.382936 L59.6311899,103.361263 C59.7553082,100.600621 59.9550283,97.7286012 60.0575462,94.6804025 L59.7038594,94.6804025 C55.0828653,102.384622 49.5161436,105.344827 44.8951494,105.344827 C36.4835561,105.344827 32.3392702,98.1173149 32.3392702,87.929599 C32.3392702,70.3990389 41.1045502,45.5256345 65.9779546,45.5256345 Z M148.310077,30.8245683 L145.349872,46.4636732 L177.812164,46.4636732 L166.678721,104.39141 L151.870011,104.39141 L160.999,56.8889362 L143.335396,56.8897432 L138.237693,83.7776243 C137.884007,85.7921009 137.760985,87.5682235 137.760985,88.6369725 C137.760985,92.1892176 139.537108,93.4963208 142.266647,93.4963208 C143.335396,93.4963208 144.873164,93.4963208 146.2956,93.2579667 L144.519477,104.39141 C141.797627,105.106472 138.476047,105.337138 135.631176,105.337138 C126.750563,105.337138 122.360234,100.362457 122.360234,92.5429043 C122.360234,89.9363868 122.836942,86.7378285 123.428983,83.8929569 L128.526686,56.8820544 L121.775882,56.8820544 L123.790359,46.4559844 L130.541162,46.4559844 L132.909326,34.492146 L148.310077,30.8245683 Z M107.451569,45.5179456 C112.549272,45.5179456 116.216849,46.4636732 118.346659,47.6477549 L115.1481,58.4275116 C113.48731,57.4817841 110.76546,56.6513891 108.281964,56.6513891 C103.545637,56.6513891 100.585433,59.1348851 100.585433,63.0485058 C100.585433,66.00871 102.246223,67.7848326 104.968073,70.0376633 C111.480523,75.0123442 113.618021,80.6943986 113.618021,85.2000601 C113.618021,97.9942934 104.729719,105.098784 91.4664664,105.098784 C86.1380988,105.098784 81.3940832,103.561015 79.3796065,102.138579 L82.9241628,91.7125094 C85.2923262,93.0196126 88.1371978,94.1960054 92.2814837,94.0806728 C96.5487911,93.9653401 98.9169545,91.2358012 98.9169545,87.5682235 C98.9169545,84.3696651 97.3791861,82.1168344 93.3502328,78.918276 C88.3755519,74.8893227 86.0073885,69.7993092 86.0073885,64.8246283 C86.0073885,54.1602042 94.2959604,45.5179456 107.451569,45.5179456 Z M35.0611203,21.4749362 C38.8517195,21.4749362 41.6965911,22.066977 43.4727136,22.6590179 L40.1588226,34.0308154 C38.7363868,33.5541072 37.4369725,33.323442 35.5378285,33.323442 C30.2094609,33.323442 27.1262352,38.8901637 26.1805076,43.9801772 L25.7037994,46.4636732 L36.9602643,46.4636732 L34.9457877,56.8897432 L23.9276768,56.8897432 L14.80871,104.39141 L3.55271368e-15,104.39141 L9.11896681,56.8897432 L11.1411323,46.4636732 L11.6101517,44.0955098 C12.9172548,37.2293738 15.5237723,31.3012765 20.3754317,26.8033038 C23.9276768,23.4894128 29.1407118,21.4749362 35.0611203,21.4749362 Z M61.8413576,56.5360565 C52.1303499,56.5360565 46.9173149,75.8427392 46.7942934,84.377354 C46.7942934,89.4750563 47.5093558,93.142634 51.1769335,93.142634 C55.2058868,93.142634 58.996486,86.5071632 61.1262952,75.9657606 L64.9168944,56.8897432 C63.7328127,56.6513891 62.6640637,56.5360565 61.8413576,56.5360565 Z M174.013876,22.5359964 C178.873224,22.5359964 181.126055,26.2035741 181.003033,30.2325274 C180.887701,36.1529359 176.858748,39.4745157 172.476108,39.4745157 C167.739781,39.4745157 165.609971,36.0376032 165.725304,31.6549632 C165.725304,27.3953446 168.800841,22.5359964 174.013876,22.5359964 Z"></path>
    </g>
</svg>

<svg xmlns="http://www.w3.org/2000/svg" viewBox="0 0 511.938 151.339">
  <path d="m504.511 21.49 7.427-19.237-.322-1.192-73.483 19.36C445.968 9.089 443.277 0 443.277 0s-23.466 14.986-41.212 14.593c-17.746-.392-23.466-5.128-50.677 3.553-27.211 8.673-34.9 35.3-42.789 41.02-7.888 5.72-32.639 24.35-32.639 24.35l.054.33 22.313-7.104s-6.12 5.767-19.122 23.29c0 0-.223-.208-.608-.561l.024.123s10.449 15.97 20.706 13.017c1.03-.3 2.191-.792 3.46-1.438 4.129 2.299 9.518 4.56 15.47 5.182 0 0-4.03-4.682-7.39-10.01.908-.585 1.838-1.192 2.784-1.807l-.438.307 8.496 3.122-.938-7.989c.03-.015.054-.038.084-.054l8.35 3.068-1.037-7.266a70.85 70.85 0 0 1 3.167-1.56l8.704-32.924 35.992-24.55-2.86 7.196c-7.297 17.946-20.999 22.182-20.999 22.182l-5.72 2.168c-4.252 5.029-6.044 6.267-7.505 23.144 3.43-.861 6.705-1.069 9.673-.27 15.378 4.145 20.706 22.675 16.562 27.804-1.038 1.284-3.507 3.475-6.62 6.05h-6.244l-.084 5.06c-.216.17-.431.33-.639.5h-6.35l-.077 4.936c-.562.43-1.123.846-1.661 1.253-5.967.123-13.525-5.082-13.525-5.082 0 4.736 3.944 12.025 3.944 12.025s.262-.123.7-.338c-.384.284-.6.438-.6.438s15.97 10.65 26.027 6.705c8.942-3.506 32.093-21.76 52.077-30.402l60.472-15.931 7.974-20.66-46.087 12.14V77.059l54.075-14.248 7.974-20.66-62.034 16.347V39.936zM210.928 21.475c3.79 0 6.635.592 8.412 1.184l-3.314 11.372c-1.423-.477-2.722-.708-4.621-.708-5.329 0-8.412 5.567-9.358 10.657l-.476 2.484 10.912-.001-.002-.015h15.516v.016l.354 27.841c.115 5.451.238 9.48.115 13.74h.238c1.185-4.736 2.369-8.65 4.383-14.809l8.765-26.772h14.924l-18.945 45.602c-5.69 13.271-12.202 24.405-19.307 30.917-3.436 3.199-7.458 5.69-9.949 6.75l-5.92-12.086c2.606-1.307 5.328-2.845 7.696-4.736 3.322-2.73 6.513-6.044 7.935-9.242.238-.83.47-1.423.354-2.607l-4.982-44.173h-13.864l-9.119 47.502h-14.808l9.119-47.501 2.022-10.426.469-2.368c1.307-6.867 3.914-12.795 8.765-17.293 3.552-3.314 8.765-5.328 14.686-5.328zm-144.95 24.05c5.805 0 11.61.946 15.162 2.369l-6.39 32.208c-1.422 6.751-2.49 18.008-2.367 24.282l-12.795-.001.043-1.022c.124-2.76.324-5.632.427-8.68h-.354c-4.621 7.704-10.188 10.664-14.809 10.664-8.411 0-12.556-7.228-12.556-17.415 0-17.531 8.766-42.404 33.639-42.404zm82.332-14.7-2.96 15.639h32.462L166.68 104.39H151.87l9.129-47.502h-17.664l-5.097 26.889c-.354 2.014-.477 3.79-.477 4.859 0 3.552 1.776 4.86 4.506 4.86 1.068 0 2.606 0 4.029-.239l-1.777 11.133c-2.721.715-6.043.946-8.888.946-8.88 0-13.27-4.975-13.27-12.794 0-2.607.476-5.805 1.068-8.65l5.098-27.01h-6.751l2.014-10.427h6.751l2.368-11.964zm-40.858 14.693c5.097 0 8.765.946 10.895 2.13l-3.199 10.78c-1.66-.946-4.383-1.777-6.866-1.777-4.736 0-7.697 2.484-7.697 6.398 0 2.96 1.661 4.736 4.383 6.989 6.513 4.974 8.65 10.656 8.65 15.162 0 12.794-8.888 19.899-22.152 19.899-5.328 0-10.072-1.538-12.086-2.96l3.544-10.426c2.368 1.307 5.213 2.483 9.357 2.368 4.268-.116 6.636-2.845 6.636-6.513 0-3.198-1.538-5.451-5.567-8.65-4.974-4.029-7.343-9.119-7.343-14.093 0-10.665 8.289-19.307 21.445-19.307zm-72.39-24.043c3.79 0 6.635.592 8.41 1.184L40.16 34.031c-1.423-.477-2.722-.708-4.621-.708-5.329 0-8.412 5.567-9.357 10.657l-.477 2.484H36.96L34.946 56.89H23.928l-9.12 47.501H0L9.119 56.89l2.022-10.426.47-2.368c1.306-6.867 3.913-12.795 8.764-17.293 3.553-3.314 8.766-5.328 14.686-5.328zm26.78 35.061c-9.712 0-14.925 19.307-15.048 27.841 0 5.098.715 8.766 4.383 8.766 4.029 0 7.82-6.636 9.95-17.177l3.79-19.076c-1.184-.239-2.253-.354-3.076-.354zm112.172-34c4.86 0 7.112 3.668 6.989 7.697-.115 5.92-4.144 9.242-8.527 9.242-4.736 0-6.866-3.437-6.75-7.82 0-4.26 3.075-9.119 8.288-9.119z"/>
</svg>
